packages/components/icons/assets/ProOutline.svg

<svg viewBox="0 0 24 24" xmlns="http://www.w3.org/2000/svg" data-title="ProOutline" fill="currentColor" stroke="none">
  <path fill-rule="evenodd" clip-rule="evenodd" d="M15.6137 6.5733H14.6604V4.85081C14.6604 4.53915 14.4079 4.28665 14.0962 4.28665H12.7529V2.57C12.7529 2.255 12.4979 2 12.1838 2H11.7971C11.4821 2 11.2271 2.255 11.2271 2.57V4.28665H9.88461C9.57295 4.28665 9.32045 4.53915 9.32045 4.85081V6.5733H8.36712C8.05046 6.5733 7.79463 6.82913 7.79463 7.14496V21.9998H16.1854V7.14496C16.1854 6.82913 15.9296 6.5733 15.6137 6.5733ZM14.3604 9.33327H9.62045C9.35878 9.33327 9.14628 9.12161 9.14628 8.85994C9.14628 8.59745 9.35878 8.38578 9.62045 8.38578H14.3604C14.6221 8.38578 14.8346 8.59745 14.8346 8.85994C14.8346 9.12161 14.6221 9.33327 14.3604 9.33327ZM14.3604 11.6199H9.62045C9.35878 11.6199 9.14628 11.4074 9.14628 11.1466C9.14628 10.8841 9.35878 10.6724 9.62045 10.6724H14.3604C14.6221 10.6724 14.8346 10.8841 14.8346 11.1466C14.8346 11.4074 14.6221 11.6199 14.3604 11.6199ZM14.3604 13.9057H9.62045C9.35878 13.9057 9.14628 13.6941 9.14628 13.4324C9.14628 13.1707 9.35878 12.9591 9.62045 12.9591H14.3604C14.6221 12.9591 14.8346 13.1707 14.8346 13.4324C14.8346 13.6941 14.6221 13.9057 14.3604 13.9057ZM14.3604 16.1924H9.62045C9.35878 16.1924 9.14628 15.9816 9.14628 15.7191C9.14628 15.4574 9.35878 15.2457 9.62045 15.2457H14.3604C14.6221 15.2457 14.8346 15.4574 14.8346 15.7191C14.8346 15.9816 14.6221 16.1924 14.3604 16.1924ZM14.3604 18.4799H9.62045C9.35878 18.4799 9.14628 18.2674 9.14628 18.0057C9.14628 17.744 9.35878 17.5324 9.62045 17.5324H14.3604C14.6221 17.5324 14.8346 17.744 14.8346 18.0057C14.8346 18.2674 14.6221 18.4799 14.3604 18.4799Z"/>
  <path d="M6.4633 9.77594H5.28081V8.85428C5.28081 8.54011 5.02581 8.28511 4.71081 8.28511H4.32498C4.01082 8.28511 3.75499 8.54011 3.75499 8.85428V9.77594H2.57333C2.25833 9.77594 2 10.0334 2 10.3484V21.4275C2 21.7425 2.25833 22 2.57333 22H6.4633C6.77829 22 7.03579 21.7425 7.03579 21.4275V10.3484C7.03579 10.0334 6.77829 9.77594 6.4633 9.77594ZM20.2444 9.77594H21.4269C21.7419 9.77594 21.9994 10.0334 21.9994 10.3484V21.4275C21.9994 21.7425 21.7419 22 21.4269 22H17.537C17.2211 22 16.9636 21.7425 16.9636 21.4275V10.3484C16.9636 10.0334 17.2211 9.77594 17.537 9.77594H18.7186V8.85428C18.7186 8.54011 18.9744 8.28511 19.2886 8.28511H19.6744C19.9894 8.28511 20.2444 8.54011 20.2444 8.85428V9.77594Z"/>
</svg>

<svg viewBox="0 0 24 24" xmlns="http://www.w3.org/2000/svg" data-title="ProOutline" fill="currentColor" stroke="none">
  <path fill-rule="evenodd" d="m15.61,6.57h-.95v-1.72c0-.31-.25-.56-.56-.56h-1.34v-1.72c0-.31-.26-.57-.57-.57h-.39c-.32,0-.57.26-.57.57v1.72h-1.34c-.31,0-.56.25-.56.56v1.72h-.95c-.32,0-.57.26-.57.57v14.85h8.39V7.14c0-.32-.26-.57-.57-.57Zm-1.25,2.76h-4.74c-.26,0-.47-.21-.47-.47s.21-.47.47-.47h4.74c.26,0,.47.21.47.47s-.21.47-.47.47Zm0,2.29h-4.74c-.26,0-.47-.21-.47-.47s.21-.47.47-.47h4.74c.26,0,.47.21.47.47s-.21.47-.47.47Zm0,2.29h-4.74c-.26,0-.47-.21-.47-.47s.21-.47.47-.47h4.74c.26,0,.47.21.47.47s-.21.47-.47.47Zm0,2.29h-4.74c-.26,0-.47-.21-.47-.47s.21-.47.47-.47h4.74c.26,0,.47.21.47.47s-.21.47-.47.47Zm0,2.29h-4.74c-.26,0-.47-.21-.47-.47s.21-.47.47-.47h4.74c.26,0,.47.21.47.47s-.21.47-.47.47Z"/>
  <path d="m6.46,9.78h-1.18v-.92c0-.31-.26-.57-.57-.57h-.39c-.31,0-.57.25-.57.57v.92h-1.18c-.31,0-.57.26-.57.57v11.08c0,.32.26.57.57.57h3.89c.31,0,.57-.26.57-.57v-11.08c0-.32-.26-.57-.57-.57Zm13.78,0h1.18c.31,0,.57.26.57.57v11.08c0,.32-.26.57-.57.57h-3.89c-.32,0-.57-.26-.57-.57v-11.08c0-.32.26-.57.57-.57h1.18v-.92c0-.31.26-.57.57-.57h.39c.32,0,.57.25.57.57v.92Z"/>
</svg>
